logos/pluralsight.svg

<?xml version="1.0" encoding="UTF-8"?>
<svg width="512px" height="108px" viewBox="0 0 512 108" version="1.1" xmlns="http://www.w3.org/2000/svg" preserveAspectRatio="xMidYMid">
    <title>Pluralsight</title>
    <defs>
        <linearGradient x1="49.9986825%" y1="1.57575758%" x2="49.9986825%" y2="100.442688%" id="pluralsightLinearGradient-1">
            <stop stop-color="#DF5430" offset="0%"></stop>
            <stop stop-color="#D7197E" offset="100%"></stop>
        </linearGradient>
    </defs>
    <g>
        <path d="M107.949511,53.9733333 C107.949511,83.7831111 83.7831111,107.946667 53.9733333,107.946667 C24.1635556,107.946667 -1.61687947e-13,83.7831111 -1.61687947e-13,53.9733333 C-1.61687947e-13,24.1635556 24.1635556,0 53.9733333,0 C83.7831111,0 107.949511,24.1635556 107.949511,53.9733333" fill="url(#pluralsightLinearGradient-1)"></path>
        <path d="M40.0981333,25.9242667 L40.0981333,82.0195556 L88.6784,53.9733333 L40.0981333,25.9242667 Z M44.7488,33.9797333 L79.3770667,53.9733333 L44.7488,73.9669333 L44.7488,33.9797333 L44.7488,33.9797333 Z" fill="#FFFFFE"></path>
        <path d="M28.9308444,32.0483556 L28.9308444,75.8954667 L66.9013333,53.9704889 L28.9308444,32.0483556 Z M33.5815111,40.1038222 L57.6028444,53.9704889 L33.5815111,67.8428444 L33.5815111,40.1038222 L33.5815111,40.1038222 Z" fill="#FFFFFE"></path>
        <path d="M424.635733,38.8465778 C429.732978,38.8465778 432.8704,40.2688 435.876978,42.8202667 L432.6144,46.7029333 C430.3616,44.7800889 428.145778,43.5683556 424.425244,43.5683556 C419.214696,43.5683556 415.216185,47.9805946 414.955407,53.3312761 L414.941867,53.9733333 C414.941867,59.9893333 418.909867,64.4209778 424.886044,64.4209778 C427.645156,64.4209778 430.151111,63.5448889 431.945956,62.2051556 L431.945956,56.7296 L424.467911,56.7296 L424.467911,52.2609778 L436.920889,52.2609778 L436.920889,64.5461333 C434.039467,67.0094222 429.9008,69.1000889 424.718222,69.1000889 C415.793636,69.1000889 409.851561,62.9025209 409.560035,54.6913517 L409.5488,53.9733333 C409.5488,45.7841778 415.817956,38.8465778 424.635733,38.8465778 Z M209.8176,39.3472 L209.8176,55.9786667 C209.8176,61.4115556 212.619378,64.3356444 217.213156,64.3356444 C221.769956,64.3356444 224.568889,61.5793778 224.568889,56.1891556 L224.568889,39.3472 L229.7088,39.3472 L229.7088,55.936 C229.7088,64.6712889 224.779378,69.0602667 217.133511,69.0602667 C209.524622,69.0602667 204.677689,64.6712889 204.677689,56.1891556 L204.677689,39.3472 L209.8176,39.3472 Z M365.041778,38.9290667 C369.302756,38.9290667 372.6848,40.2261333 375.6544,42.6097778 L372.898133,46.4952889 C370.267022,44.5297778 367.633067,43.4858667 364.956444,43.4858667 C362.124047,43.4858667 360.405333,44.8540346 360.212932,46.6180834 L360.194844,47.0357333 C360.194844,48.9304747 361.138153,49.9421184 364.75789,51.0097184 L365.866426,51.3170808 C366.261212,51.4205833 366.681771,51.5254044 367.1296,51.6323556 C373.084392,53.0813366 376.288118,55.1897294 376.517263,59.6720041 L376.530489,60.2794667 C376.530489,65.7578667 372.226844,69.0147556 366.085689,69.0147556 C361.614222,69.0147556 357.395911,67.4702222 353.885867,64.3356444 L356.974933,60.6577778 C359.776711,63.0840889 362.578489,64.4579556 366.210844,64.4579556 C369.208889,64.4579556 371.166692,63.1563852 371.374972,61.1451108 L371.393422,60.7004444 C371.393422,58.8606578 370.485894,57.7675992 366.567664,56.6769196 L365.42283,56.3789613 C365.219057,56.329125 365.008668,56.2791538 364.791467,56.2289778 L363.499086,55.9002724 C358.289822,54.4996634 355.29128,52.6503987 355.068328,48.0606093 L355.054933,47.4112 C355.054933,42.3964444 359.233422,38.9290667 365.041778,38.9290667 Z M148.733156,39.3472 C155.323091,39.3472 159.568802,42.9860762 159.835861,48.5623751 L159.849244,49.2088889 C159.849244,55.7681778 154.584178,59.1985778 148.1472,59.1985778 L142.338844,59.1985778 L142.338844,68.5994667 L137.198933,68.5994667 L137.198933,39.3472 L148.733156,39.3472 Z M177.752178,39.3472 L177.752178,63.9175111 L193.129244,63.9175111 L193.129244,68.5994667 L172.609422,68.5994667 L172.609422,39.3472 L177.752178,39.3472 Z M257.308444,39.3472 C260.986311,39.3472 263.867733,40.4366222 265.747911,42.2712889 C267.163733,43.7262222 268.020267,45.6759111 268.15319,47.9516527 L268.171378,48.6684444 C268.171378,53.4698667 265.284267,56.3569778 261.193956,57.5260444 L269.090133,68.5994667 L263.034311,68.5994667 L255.843556,58.4021333 L249.406578,58.4021333 L249.406578,68.5994667 L244.269511,68.5994667 L244.269511,39.3472 L257.308444,39.3472 Z M297.102222,39.1395556 L309.973333,68.5966222 L304.540444,68.5966222 L301.573689,61.5367111 L287.744,61.5367111 L284.734578,68.5966222 L279.469511,68.5966222 L292.340622,39.1395556 L297.102222,39.1395556 Z M327.620267,39.3472 L327.620267,63.9175111 L343.000178,63.9175111 L343.000178,68.5994667 L322.4832,68.5994667 L322.4832,39.3472 L327.620267,39.3472 Z M395.522844,39.3472 L395.522844,68.5994667 L390.385778,68.5994667 L390.385778,39.3472 L395.522844,39.3472 Z M456.240356,39.3472 L456.240356,51.5072 L470.1952,51.5072 L470.1952,39.3472 L475.337956,39.3472 L475.337956,68.5994667 L470.1952,68.5994667 L470.1952,56.2716444 L456.240356,56.2716444 L456.240356,68.5994667 L451.100444,68.5994667 L451.100444,39.3472 L456.240356,39.3472 Z M512,39.3472 L512,44.1116444 L502.721422,44.1116444 L502.721422,68.5994667 L497.541689,68.5994667 L497.541689,44.1116444 L488.263111,44.1116444 L488.263111,39.3472 L512,39.3472 Z M294.638933,45.2807111 L289.624178,56.9799111 L299.693511,56.9799111 L294.638933,45.2807111 Z M148.315022,44.0263111 L142.338844,44.0263111 L142.338844,54.5564444 L148.315022,54.5564444 C152.023919,54.5564444 154.403256,52.5789502 154.611896,49.7446518 L154.626844,49.2487111 C154.626844,45.8268444 152.160711,44.0263111 148.315022,44.0263111 Z M256.890311,44.0263111 L249.406578,44.0263111 L249.406578,53.8510222 L256.930133,53.8510222 C260.430154,53.8510222 262.722738,52.1043656 262.933143,49.3752224 L262.948978,48.8760889 C262.948978,45.7415111 260.690489,44.0263111 256.890311,44.0263111 Z" fill="#1B1A19"></path>
    </g>
</svg>

<svg preserveAspectRatio="xMidYMid" viewBox="0 0 512 108" xmlns="http://www.w3.org/2000/svg">
  <defs>
    <linearGradient id="pluralsight_svg__a" x1="49.999%" x2="49.999%" y1="1.576%" y2="100.443%">
      <stop offset="0%" stop-color="#DF5430"/>
      <stop offset="100%" stop-color="#D7197E"/>
    </linearGradient>
  </defs>
  <path fill="url(#pluralsight_svg__a)" d="M107.95 53.973c0 29.81-24.167 53.974-53.977 53.974C24.163 107.947 0 83.783 0 53.973 0 24.163 24.164 0 53.973 0c29.81 0 53.977 24.164 53.977 53.973"/>
  <path fill="#FFFFFE" d="M40.098 25.924V82.02l48.58-28.047-48.58-28.049Zm4.65 8.056 34.63 19.993-34.63 19.994V33.98Z"/>
  <path fill="#FFFFFE" d="M28.93 32.048v43.847L66.902 53.97l-37.97-21.922Zm4.652 8.056 24.02 13.866-24.02 13.873v-27.74Z"/>
  <path fill="#1B1A19" d="M424.636 38.847c5.097 0 8.234 1.422 11.241 3.973l-3.263 3.883c-2.252-1.923-4.468-3.135-8.189-3.135-5.21 0-9.209 4.413-9.47 9.763l-.013.642c0 6.016 3.968 10.448 9.944 10.448 2.76 0 5.265-.876 7.06-2.216V56.73h-7.478v-4.47h12.453v12.285c-2.882 2.463-7.02 4.554-12.203 4.554-8.924 0-14.866-6.197-15.158-14.409l-.011-.718c0-8.189 6.269-15.126 15.087-15.126Zm-214.818.5V55.98c0 5.433 2.801 8.357 7.395 8.357 4.557 0 7.356-2.757 7.356-8.147V39.347h5.14v16.589c0 8.735-4.93 13.124-12.575 13.124-7.61 0-12.456-4.389-12.456-12.87V39.346h5.14Zm155.224-.418c4.26 0 7.643 1.297 10.612 3.68l-2.756 3.886c-2.631-1.965-5.265-3.01-7.942-3.01-2.832 0-4.55 1.369-4.743 3.133l-.018.418c0 1.894.943 2.906 4.563 3.974l1.108.307c.395.104.816.208 1.264.315 5.954 1.45 9.158 3.558 9.387 8.04l.013.607c0 5.479-4.303 8.736-10.444 8.736-4.472 0-8.69-1.545-12.2-4.68l3.089-3.677c2.802 2.426 5.603 3.8 9.236 3.8 2.998 0 4.956-1.302 5.164-3.313l.018-.445c0-1.84-.907-2.932-4.825-4.023l-1.145-.298c-.204-.05-.414-.1-.632-.15L363.5 55.9c-5.21-1.4-8.208-3.25-8.43-7.84l-.014-.649c0-5.015 4.178-8.482 9.987-8.482Zm-216.309.418c6.59 0 10.836 3.64 11.103 9.215l.013.647c0 6.56-5.265 9.99-11.702 9.99h-5.808v9.4h-5.14V39.347h11.534Zm29.02 0v24.57h15.376V68.6h-20.52V39.347h5.143Zm79.555 0c3.678 0 6.56 1.09 8.44 2.924 1.416 1.455 2.272 3.405 2.405 5.68l.018.717c0 4.802-2.887 7.689-6.977 8.858l7.896 11.073h-6.056l-7.19-10.197h-6.437V68.6h-5.137V39.347h13.038Zm39.794-.207 12.871 29.457h-5.433l-2.966-7.06h-13.83l-3.01 7.06h-5.264l12.87-29.457h4.762Zm30.518.207v24.57H343V68.6h-20.517V39.347h5.137Zm67.903 0V68.6h-5.137V39.347h5.137Zm60.717 0v12.16h13.955v-12.16h5.143V68.6h-5.143V56.272H456.24v12.327h-5.14V39.347h5.14Zm55.76 0v4.765h-9.279v24.487h-5.18V44.112h-9.278v-4.765H512Zm-217.361 5.934-5.015 11.699h10.07l-5.055-11.7Zm-146.324-1.255h-5.976v10.53h5.976c3.709 0 6.088-1.977 6.297-4.811l.015-.496c0-3.422-2.466-5.223-6.312-5.223Zm108.575 0h-7.483v9.825h7.523c3.5 0 5.793-1.747 6.003-4.476l.016-.499c0-3.134-2.259-4.85-6.059-4.85Z"/>
</svg>
